X:384
%%etbk:tnset id:109,pos:1,rep:3x,ant:
%%etbk:wsite http://www.thesession.org/tunes/display/1968
%%etbk:pldat 2015-04-30T18:31,2015-04-08T18:40,2015-04-04T16:03,2015-03-26T18:52,2015-03-24T16:04,2015-01-18T11:53,2014-05-09T18:23,2014-05-01T18:15,2013-11-24T14:10
T: Little Fair Cannavans, The
Z: Piano Box Version by Martin Fleischmann
H: Created 2013-02-19 /  Last Modified 2013-02-19
M: 9/8
L: 1/8
R: slip jig
K: Gmaj
|: !5!B!3!GG !4!A!3!G!2!E !3!G!2!E!1!D | !2!E!3!GD !1!D!2!E!3!G !4!A2A | !5!BGG !4!AGE !3!GED |1!2!EGD !1!DEF !4!!3!G3:|2EGD DE!3!F !1!G2!1!G||
|:!3!B!4!dd !5!e!4!dd !3!BAG | Bdd !5!e!4!d!3!B !2!A2A | !3!B!4!dd edd !3!BA!1!G |1 !4!GED DEF !4!G2!1!G :|2 !4!GED DEF !4!!3!G3||


